icons/jar.svg

<svg width="16" height="16" viewBox="0 0 16 16" fill="none" xmlns="http://www.w3.org/2000/svg">
<path fill-rule="evenodd" clip-rule="evenodd" d="M4 3H6.5C6.81476 3 7.11115 3.14819 7.3 3.4L8.2 4.6C8.38885 4.85181 8.68524 5 9 5H13C13.5523 5 14 5.44772 14 6V12C14 12.5523 13.5523 13 13 13H4C3.44771 13 3 12.5523 3 12V4C3 3.44772 3.44772 3 4 3ZM7.50056 9.50056C7.49505 9.69905 7.53007 9.89657 7.6035 10.0811C7.67693 10.2655 7.78722 10.4331 7.92762 10.5735C8.06803 10.7139 8.23559 10.8242 8.42008 10.8976C8.60456 10.9711 8.80208 11.0061 9.00056 11.0006V10.0006C8.93376 10.005 8.86678 9.99508 8.80411 9.97151C8.74145 9.94795 8.68454 9.91127 8.6372 9.86393C8.58986 9.81659 8.55318 9.75968 8.52961 9.69701C8.50605 9.63435 8.49614 9.56737 8.50056 9.50056C8.50056 9.22056 8.61056 9.10056 8.85056 8.85056C9.05263 8.68817 9.21586 8.48268 9.32832 8.24911C9.44078 8.01554 9.49963 7.7598 9.50056 7.50056C9.50608 7.30208 9.47105 7.10456 9.39762 6.92008C9.32419 6.73559 9.21391 6.56803 9.0735 6.42762C8.9331 6.28722 8.76553 6.17693 8.58105 6.1035C8.39657 6.03007 8.19905 5.99505 8.00056 6.00056V7.00056C8.06737 6.99614 8.13435 7.00605 8.19701 7.02961C8.25968 7.05318 8.31659 7.08986 8.36393 7.1372C8.41127 7.18454 8.44795 7.24145 8.47151 7.30412C8.49508 7.36678 8.50498 7.43376 8.50056 7.50056C8.50056 7.78056 8.39056 7.90056 8.15056 8.15056C7.9485 8.31296 7.78527 8.51845 7.67281 8.75202C7.56035 8.98559 7.5015 9.24133 7.50056 9.50056ZM6.50056 10.0006V11.0006C6.30208 11.0061 6.10456 10.9711 5.92008 10.8976C5.73559 10.8242 5.56803 10.7139 5.42762 10.5735C5.28722 10.4331 5.17693 10.2655 5.1035 10.0811C5.03007 9.89657 4.99505 9.69905 5.00056 9.50056C5.0015 9.24133 5.06035 8.98559 5.17281 8.75202C5.28527 8.51845 5.4485 8.31296 5.65056 8.15056C5.89056 7.90056 6.00056 7.78056 6.00056 7.50056H7.00056C6.99963 7.7598 6.94078 8.01554 6.82832 8.24911C6.71586 8.48268 6.55263 8.68817 6.35056 8.85056C6.11056 9.10056 6.00056 9.22056 6.00056 9.50056C5.99614 9.56737 6.00605 9.63435 6.02961 9.69701C6.05318 9.75968 6.08986 9.81659 6.1372 9.86393C6.18454 9.91127 6.24145 9.94795 6.30411 9.97152C6.36678 9.99508 6.43376 10.005 6.50056 10.0006ZM11.5006 10.0006V11.0006C11.3021 11.0061 11.1046 10.9711 10.9201 10.8976C10.7356 10.8242 10.568 10.7139 10.4276 10.5735C10.2872 10.4331 10.1769 10.2655 10.1035 10.0811C10.0301 9.89657 9.99505 9.69905 10.0006 9.50056C10.0015 9.24133 10.0604 8.98559 10.1728 8.75202C10.2853 8.51845 10.4485 8.31296 10.6506 8.15056C10.8906 7.90056 11.0006 7.78056 11.0006 7.50056H12.0006C11.9996 7.7598 11.9408 8.01554 11.8283 8.24911C11.7159 8.48268 11.5526 8.68817 11.3506 8.85056C11.1106 9.10056 11.0006 9.22056 11.0006 9.50056C10.9961 9.56737 11.006 9.63435 11.0296 9.69701C11.0532 9.75968 11.0899 9.81659 11.1372 9.86393C11.1845 9.91127 11.2414 9.94795 11.3041 9.97152C11.3668 9.99508 11.4338 10.005 11.5006 10.0006Z" fill="#CE3939"/>
</svg>

<svg xmlns="http://www.w3.org/2000/svg" width="16" height="16" fill="none"><path fill="#CE3939" fill-rule="evenodd" d="M4 3h2.5a1 1 0 0 1 .8.4l.9 1.2A1 1 0 0 0 9 5h4a1 1 0 0 1 1 1v6a1 1 0 0 1-1 1H4a1 1 0 0 1-1-1V4a1 1 0 0 1 1-1Zm3.5 6.5A1.46 1.46 0 0 0 9 11v-1a.47.47 0 0 1-.5-.5c0-.28.11-.4.35-.65A1.74 1.74 0 0 0 9.5 7.5 1.46 1.46 0 0 0 8 6v1a.47.47 0 0 1 .5.5c0 .28-.11.4-.35.65A1.74 1.74 0 0 0 7.5 9.5Zm-1 .5v1A1.46 1.46 0 0 1 5 9.5a1.74 1.74 0 0 1 .65-1.35c.24-.25.35-.37.35-.65h1a1.74 1.74 0 0 1-.65 1.35c-.24.25-.35.37-.35.65a.47.47 0 0 0 .5.5Zm5 0v1A1.46 1.46 0 0 1 10 9.5a1.74 1.74 0 0 1 .65-1.35c.24-.25.35-.37.35-.65h1a1.74 1.74 0 0 1-.65 1.35c-.24.25-.35.37-.35.65a.468.468 0 0 0 .5.5Z" clip-rule="evenodd"/></svg>
